X:1
L:1/8
Q:1/4=100
M:9/8
K:G
 D | G(B/c/d) d(B/c/d) gfe | dge dcB AFD | G(B/c/d) d(B/c/d) gfe | dgB AGF G2 :: c | 
""^tr"" B2 G (B/c/d)B (e/f/g)c |""^tr"" B2 G (B/c/d)B AFD | Bcd dBd efg | fag fdf g2 :|
